icons/lines/screenmirroring.svg

<svg xmlns="http://www.w3.org/2000/svg" width="24" height="24" viewBox="0 0 24 24" fill="none" stroke="currentColor" stroke-width="2" stroke-linecap="round" stroke-linejoin="round">
  <path d="M15 22c5 0 7-2 7-7V9c0-5-2-7-7-7H9C4 2 2 4 2 9v6c0 5 2 7 7 7z" />
  <path d="M16.4 18.5c1.5 0 2.1-.6 2.1-2.1v-1.8c0-1.5-.6-2.1-2.1-2.1h-3.8c-1.5 0-2.1.6-2.1 2.1v1.8c0 1.5.6 2.1 2.1 2.1z" />
</svg>

<svg xmlns="http://www.w3.org/2000/svg" width="24" height="24" viewBox="0 0 24 24" fill="none" stroke="currentColor" stroke-width="2" stroke-linecap="round" stroke-linejoin="round" >
  <path d="M9 22H15C20 22 22 20 22 15V9C22 4 20 2 15 2H9C4 2 2 4 2 9V15C2 20 4 22 9 22Z"/>
  <path d="M12.6 18.5H16.4C17.9 18.5 18.5 17.9 18.5 16.4V14.6C18.5 13.1 17.9 12.5 16.4 12.5H12.6C11.1 12.5 10.5 13.1 10.5 14.6V16.4C10.5 17.9 11.1 18.5 12.6 18.5Z"/>
  </svg>
